X: 11523
T: The AULD MAID WAD BE MARRIED
T: MY MITHER'S AYE GLOWERING OWER ME.
O: Scottish.
Q: "With spirit, but not too fast."
%R: air, jig
B: W. Hamilton "Universal Tune-Book" Vol. 1 Glasgow 1844 p.152 #3
S: http://imslp.org/wiki/Hamilton's_Universal_Tune-Book_(Various)
Z: 2016 John Chambers <jc:trillian.mit.edu>
M: 6/8
L: 1/8
K: Gm
% - - - - - - - - - - - - - - - - - - - - - - - - -
[|\
G>AG F2D | B>cB A>Bc | d>ed c2B | f3 d3 |\
Bcd/e/ f2d | c>AF FGA | B2G AFD | B3 G3 |]
f>ag f2d | g>ab {b}a2g | fdb fdB | f3 gab |\
f<dB Bfd | cAF FGA | BAG AFD | B3 G3 |]
% - - - - - - - - - - - - - - - - - - - - - - - - -
%%begintext align
%% Burns' song, "Louis what reck I by thee," is sung to the above tune.
%%endtext
%%sep 1 1 300

%%sep 1 1 500
%%sep 1 1 500

